!!!OTL: Spazierende Sch&auml;ferin (2-67) S. 203
!!!id: P0940
**kern
*clefG2
*k[b-e-a-]
*E-:
{8b-
=1
8b-
8b-
8b-
8b-
=2
4b-
8b-}
=3
{8b-
=4
8b-
8ee-
8ff
8ff
=5
4.b-}
=6
{8b-
=7
8b-
8b-
8b-
8dd
=8
4ee-
8dd}
=9
{8cc
=10
8b-
8g
8a-
8f
=11
2e-}
=12
{8g
16b-
16b-
4e-
=13
8f
16a-
16a-
4d
=14
8e-
8g
4g}
=15
{8g
16b-
16b-
4e-
=16
8f
16a-
16a-
8d
8f
=17
4e-}
8r
==
*-
!!!minrhy: 16
!!!meters: 2/4 ]  ZZ[6
!!!cut: Spazierende Sch&auml;ferin (2-67) S. 203
!!!reg: Lothringen
!!!trd: PINCK, Louis: Verklingende Weisen, Bd 2, Metz 1928
!!!rhy1: X_  X_X_X_X_  X__X_   (x2)
!!!rhy2: X_  X_X_X_X_  X__.
!!!key: P0940  16 Eb 2/4 ]  ZZ[6
!!!mod: HEPTATONIK IONISCH]  AMBITUS[10b
!!!kad: 557131
!!!akz: 55_55_5+1_51_321_321_
!!!fot: 'a__b__c__d__e__ev_
!!!for: 'a__aw_a__aw_b__c__
!!!fok: '-__^__/__\__~__Md_
!! PHRAS[VORWIEGEND AUFTAKTIG]
!!!fkt: ???, Beischlaf?
!! LOTH VKL
!! PR[36] 2K[9] 2G[9] 3K[7] 3G[7] 4A[2] 4Ü[0] 5A[0] 6K[0] 6G[2]
!! 7K[0] 7G[0] 8A[0] MEHR[0] SI[34] ABS[58] SR[17] SP[17]
!! ST[24] 2k[7] 2g[16] 3k[0] 3g[0] 4d[0] 4ü[3] 5d[3] 6k[0] 6g[0]
!! 7k[0] 7g[0] 8d[0] mehr[0] si[29] dm[+5] sr[22] sp[7]
!! 1F[7] 2F[68] 3F[25] 4F[0] LF[0] 2P[0] 3P[0] 4P[0] TRI[0] DF[3] AB[59]
!! TF[0] U3K[0] U3[0] U4[0] U4Ü[0] U5[5] U6K[0] U6[2] U7K[0] U7[5]
!! N1[17] N2K[0] N2[10] N3K[0] N3[22] N4[19] N4Ü[0] N5[17] N6K[0] N6[3]
!!!n7k: 0] N7[0] O1[0] O2K[0] O2[0] O3K[0] O3[0] HÖ[0
!!!RNB: symbol: &auml;      = a umlaut  (UTF-8: Å„)
